X:1
T:Title
%%score { ( 1 4 5 ) | ( 2 3 6 ) }
L:1/8
M:4/4
K:Ab
V:1 treble nm="Grand Piano"
V:4 treble 
V:5 treble 
V:2 bass 
V:3 bass 
V:6 bass 
V:1
 z4 z2[Q:1/4=100] [CE][CA] | [Ec]2 [Ec][Ec] [DB] [CA]2 [A,EG] | [A,DF][FA][DFA][A,DF] [CE]3 [CE] | %3
 [CA]2 [CA][DB] [Ec]2 [Ee][Ec] | B6 Bc | d2 dc BGAB | c2 z2 z4 | [B,FB]2 [Fc][FB] [=DA]2 [DG][DF] | %8
[M:7/8] z2 F2 G3 |[M:3/8] [Fd]3 |[M:4/4] z4 z .A3 | FA[A,FA][A,DF] .[DF]2 z E | z4 z .e3 | B6 z2 | %14
 z4 z .A3 | z4 z .E3 | [A,DF][FA][DFA][C=EB] c2 B>B |[M:3/4] A2- [DA-][DA-] [CA]2 |] %18
V:2
 z4 z2 [A,,A,][A,,A,] | [A,,A,]2 [A,,A,][A,,A,] [A,,A,] [A,,A,]2 C, | z DD,D, [A,,A,]3 [A,,A,] | %3
 [A,,A,]2 [A,,A,][A,,A,] [A,,A,]2 [C,A,][A,,A,] | [E,G,E]6 [E,G,E][E,A,E] | %5
 [E,B,E]2 [E,B,E][E,A,E] [E,E]-[E,DE][E,CE][E,DE] | [CE]EE,E, F,2 F,F, | %7
 =D,2 [D,B,][D,B,] [B,,B,]2 [B,,B,][B,,A,] |[M:7/8] E,2- [E,-A,]2 [E,B,]3 |[M:3/8] [E,G,]3 | %10
[M:4/4] z4 z .C3 | z4 z .C3 | z4 z .E3 | [E,G,E]2 [F,A,]2 [G,B,]2 [E,G,E]2 | z4 z .C3 | z4 z .C3 | %16
 z DD,D, [E,A,E]2 [E,G,D]>[E,G,D] |[M:3/4] z2 F,F, E,2 |] %18
V:3
 x8 | x8 | D,2 z2 z4 | x8 | x8 | z4 .G,2 z2 | A,2 z2 z4 | x8 |[M:7/8] G,2 z z z z2 |[M:3/8] x3 | %10
[M:4/4] [A,,A,]2 [A,,A,][A,,A,] z2 z C | DFD,D, z2 z C | [A,,A,]2 [A,,A,]2 z2 z E | x8 | %14
 [A,,A,]2 [A,,A,][A,,A,] z2 z C | DFD,D, z2 A,,A,, | D,2 z2 z4 |[M:3/4] A,,6 |] %18
V:4
 x8 | x8 | x8 | x8 | x8 | x8 | z A[EGc][DGB] [CFA]2 [CFG][CFA] | x8 |[M:7/8] E-E-E- E- E2- E/ z/ | %9
[M:3/8] x3 |[M:4/4] [Ec]2 [Ec][Ec] .[DB]2 z G | z4 z .E3 | [CA]2 [CA][DB] .[Ec]2 z c | %13
 z2 =D2 E2 e2 | [Ec]2 [Ec][Ec] .[DB]2 z G | FA[A,FA][A,DF] .[DF]2 A,[A,CE] | x8 | %17
[M:3/4] [A,C]2 z2 z2 |] %18
V:5
 x8 | x8 | x8 | x8 | x8 | x8 | x8 | x8 |[M:7/8] x7 |[M:3/8] x3 |[M:4/4] z4 z2 A,2 | z4 z2 A,2 | %12
 z4 z2 A,2 | x8 | z4 z2 A,2 | x8 | x8 |[M:3/4] x6 |] %18
V:6
 x8 | x8 | x8 | x8 | x8 | x8 | x8 | x8 |[M:7/8] x7 |[M:3/8] x3 |[M:4/4] z4 [A,,A,]2 A,,2 | %11
 [D,A,]2 z2 [A,,A,]2 A,,2 | z4 [A,,A,]2 C,2 | x8 | z4 [A,,A,]2 A,,2 | [D,A,]2 z2 [A,,A,]2 z2 | x8 | %17
[M:3/4] x6 |] %18

